X:812
T:Reavy's
R:reel
C:Ed Reavy (1898-1988)
Z:id:hn-reel-812
M:C|
L:1/8
K:G
~G3B dBcA|~=F3A dBcB|Add^c dfeg|fdcA AdcA|
GBd^c d=ccA|~=F3A dBcB|Add^c dfeg|fdcA BGBd||
fggf fedg|fgag fdef|fgag fdeg|fdcA BGBd|
fggf fedg|fgag fdef|fggf g2ag|fddc dccA||
% Bar 1 also played like bar 5
